build/images/men.svg

<?xml version="1.0" encoding="UTF-8"?>
<svg width="25px" height="20px" viewBox="0 0 25 20" version="1.1" xmlns="http://www.w3.org/2000/svg" xmlns:xlink="http://www.w3.org/1999/xlink">
    <!-- Generator: sketchtool 63.1 (101010) - https://sketch.com -->
    <title>1049A455-4376-4C8A-85B6-65B569E9F335</title>
    <desc>Created with sketchtool.</desc>
    <g id="Page-1" stroke="none" stroke-width="1" fill="none" fill-rule="evenodd">
        <g id="Kupa-shop-main-1" transform="translate(-1038.000000, -40.000000)" fill="#333333" fill-rule="nonzero">
            <g id="header" transform="translate(0.000000, 20.000000)">
                <g id="men" transform="translate(1038.080208, 20.000000)">
                    <path d="M20.5057129,10.5705164 L18.1539845,10.5705164 C17.833917,10.5705164 17.5240321,10.6142723 17.2291158,10.6947418 C16.6473542,9.55051643 15.4596183,8.76431925 14.090991,8.76431925 L9.93400903,8.76431925 C8.56538174,8.76431925 7.3776458,9.55051643 6.79588418,10.6947418 C6.50096792,10.6142723 6.19108296,10.5705164 5.87101553,10.5705164 L3.51928711,10.5705164 C1.5787522,10.5705164 0,12.1500939 0,14.0916432 L0,17.8530516 C0,19.0179812 0.947251318,19.9657277 2.11157227,19.9657277 L21.9134277,19.9657277 C23.0777487,19.9657277 24.025,19.0179812 24.025,17.8530516 L24.025,14.0916432 C24.025,12.1500939 22.4462478,10.5705164 20.5057129,10.5705164 Z M6.41472192,12.2855399 L6.41472192,18.5573239 L2.11157227,18.5573239 C1.72346528,18.5573239 1.40771484,18.2414085 1.40771484,17.8530986 L1.40771484,14.0916901 C1.40771484,12.9267606 2.35496616,11.9790141 3.51928711,11.9790141 L5.87101553,11.9790141 C6.06208936,11.9790141 6.24711001,12.0049765 6.42326206,12.0528169 C6.41819429,12.1298592 6.41472192,12.2073239 6.41472192,12.2855399 Z M16.2025632,18.5573239 L7.82243677,18.5573239 L7.82243677,12.285493 C7.82243677,11.1205634 8.76968809,10.1728169 9.93400903,10.1728169 L14.090991,10.1728169 C15.2553119,10.1728169 16.2025632,11.1205634 16.2025632,12.285493 L16.2025632,18.5573239 Z M22.6172852,17.8530986 C22.6172852,18.2414085 22.3015347,18.5573239 21.9134277,18.5573239 L17.6102781,18.5573239 L17.6102781,12.285493 C17.6102781,12.20723 17.6068057,12.1297653 17.6017379,12.05277 C17.77789,12.0049765 17.9629106,11.9789671 18.1539845,11.9789671 L20.5057129,11.9789671 C21.6700338,11.9789671 22.6172852,12.9267136 22.6172852,14.0916432 L22.6172852,17.8530986 Z" id="Shape"></path>
                    <path d="M4.69519824,3.92037559 C2.97079448,3.92037559 1.56791279,5.32399061 1.56791279,7.04929577 C1.56791279,8.77460094 2.97079448,10.178216 4.69519824,10.178216 C6.41955508,10.178216 7.82248369,8.77460094 7.82248369,7.04929577 C7.82248369,5.32399061 6.419602,3.92037559 4.69519824,3.92037559 Z M4.69515132,8.76976526 C3.74696152,8.76976526 2.97558071,7.99798122 2.97558071,7.04929577 C2.97558071,6.10061033 3.74696152,5.32882629 4.69515132,5.32882629 C5.64334111,5.32882629 6.41472192,6.10061033 6.41472192,7.04929577 C6.41472192,7.99798122 5.64334111,8.76976526 4.69515132,8.76976526 Z" id="Shape"></path>
                    <path d="M12.0125,0.0342253521 C9.70872773,0.0342253521 7.83449619,1.90943662 7.83449619,4.21441315 C7.83449619,6.51938967 9.70872773,8.39460094 12.0125,8.39460094 C14.3162723,8.39460094 16.1905038,6.51938967 16.1905038,4.21441315 C16.1905038,1.90948357 14.3162723,0.0342253521 12.0125,0.0342253521 Z M12.0125,6.98615023 C10.4849417,6.98615023 9.24221104,5.74276995 9.24221104,4.21441315 C9.24221104,2.68610329 10.4849417,1.44267606 12.0125,1.44267606 C13.5400583,1.44267606 14.782789,2.68605634 14.782789,4.21441315 C14.782789,5.74276995 13.5400583,6.98615023 12.0125,6.98615023 Z" id="Shape"></path>
                    <path d="M19.3298018,3.92037559 C17.6054449,3.92037559 16.2025163,5.32399061 16.2025163,7.04929577 C16.2025163,8.77460094 17.6054449,10.178216 19.3298018,10.178216 C21.0542055,10.178216 22.4570872,8.77460094 22.4570872,7.04929577 C22.4570872,5.32399061 21.0542055,3.92037559 19.3298018,3.92037559 Z M19.3298018,8.76976526 C18.3816589,8.76976526 17.6102312,7.99798122 17.6102312,7.04929577 C17.6102781,6.10061033 18.3816589,5.32882629 19.3298018,5.32882629 C20.2779916,5.32882629 21.0493724,6.10061033 21.0493724,7.04929577 C21.0493724,7.99798122 20.2779916,8.76976526 19.3298018,8.76976526 Z" id="Shape"></path>
                </g>
            </g>
        </g>
    </g>
</svg>

<svg width="25" height="20" xmlns="http://www.w3.org/2000/svg"><g id="Page-1" stroke="none" stroke-width="1" fill="none" fill-rule="evenodd"><g id="Kupa-shop-main-1" transform="translate(-1038 -40)" fill="#333" fill-rule="nonzero"><g id="header" transform="translate(0 20)"><g id="men" transform="translate(1038.08 20)"><path d="M20.506 10.57h-2.352c-.32 0-.63.044-.925.125a3.522 3.522 0 00-3.138-1.93H9.934a3.522 3.522 0 00-3.138 1.93 3.508 3.508 0 00-.925-.124H3.519A3.523 3.523 0 000 14.09v3.762c0 1.165.947 2.113 2.112 2.113h19.801a2.115 2.115 0 002.112-2.113v-3.761a3.524 3.524 0 00-3.52-3.521zM6.415 12.287v6.271H2.112a.705.705 0 01-.704-.704v-3.761c0-1.165.947-2.113 2.111-2.113h2.352c.191 0 .376.026.552.074a3.54 3.54 0 00-.008.233zm9.788 6.271h-8.38v-6.272c0-1.164.947-2.112 2.111-2.112h4.157c1.164 0 2.112.948 2.112 2.112v6.272zm6.414-.704a.705.705 0 01-.704.704H17.61v-6.272c0-.078-.003-.155-.008-.232a2.09 2.09 0 01.552-.074h2.352c1.164 0 2.111.948 2.111 2.113v3.761z" id="Shape"/><path d="M4.695 3.92a3.132 3.132 0 00-3.127 3.13 3.132 3.132 0 003.127 3.128A3.132 3.132 0 007.822 7.05a3.132 3.132 0 00-3.127-3.13zm0 4.85c-.948 0-1.72-.772-1.72-1.72 0-.95.772-1.721 1.72-1.721s1.72.772 1.72 1.72c0 .949-.772 1.72-1.72 1.72zM12.012.034a4.184 4.184 0 00-4.178 4.18 4.184 4.184 0 004.178 4.18 4.184 4.184 0 004.179-4.18 4.184 4.184 0 00-4.178-4.18zm0 6.952a2.774 2.774 0 01-2.77-2.772 2.774 2.774 0 012.77-2.771 2.774 2.774 0 012.77 2.771 2.774 2.774 0 01-2.77 2.772zM19.33 3.92a3.132 3.132 0 00-3.127 3.13 3.132 3.132 0 003.127 3.128 3.132 3.132 0 003.127-3.129A3.132 3.132 0 0019.33 3.92zm0 4.85c-.948 0-1.72-.772-1.72-1.72 0-.95.772-1.721 1.72-1.721s1.72.772 1.72 1.72c0 .949-.772 1.72-1.72 1.72z" id="Shape"/></g></g></g></g></svg>
